client/public/assets/icons/icon-search.svg

<?xml version="1.0" encoding="UTF-8" standalone="no"?>
<!-- Uploaded to: SVGRepo, www.svgrepo.com, Transformed by: SVGRepo Tools -->
<svg width="40px" height="40px" viewBox="0 0 24 24" version="1.1" xmlns="http://www.w3.org/2000/svg" xmlns:xlink="http://www.w3.org/1999/xlink" xmlns:sketch="http://www.bohemiancoding.com/sketch/ns">
    
    <title>icon/24/icon-search</title>
    <desc>Created with Sketch.</desc>
    <defs></defs>
    <g id="out" stroke="none" stroke-width="1" fill="none" fill-rule="evenodd" sketch:type="MSPage">
        <path d="M15.5071469,14.0062893 L14.7166953,14.0062893 L14.4365352,13.7361349 C15.4170955,12.5954831 16.0074328,11.1146369 16.0074328,9.50371641 C16.0074328,5.91166381 13.095769,3 9.50371641,3 C5.91166381,3 3,5.91166381 3,9.50371641 C3,13.095769 5.91166381,16.0074328 9.50371641,16.0074328 C11.1146369,16.0074328 12.5954831,15.4170955 13.7361349,14.4365352 L14.0062893,14.7166953 L14.0062893,15.5071469 L19.0091481,20.5 L20.5,19.0091481 L15.5071469,14.0062893 L15.5071469,14.0062893 L15.5071469,14.0062893 Z M9.50371641,14.0062893 C7.01229274,14.0062893 5.00114351,11.9951401 5.00114351,9.50371641 C5.00114351,7.01229274 7.01229274,5.00114351 9.50371641,5.00114351 C11.9951401,5.00114351 14.0062893,7.01229274 14.0062893,9.50371641 C14.0062893,11.9951401 11.9951401,14.0062893 9.50371641,14.0062893 L9.50371641,14.0062893 L9.50371641,14.0062893 Z" id="path" fill="#000000" sketch:type="MSShapeGroup"></path>
    </g>
</svg>

<svg xmlns="http://www.w3.org/2000/svg" width="40" height="40" viewBox="0 0 24 24"><path fill-rule="evenodd" d="M15.507 14.006h-.79l-.28-.27a6.475 6.475 0 0 0 1.57-4.232 6.504 6.504 0 1 0-6.503 6.503c1.61 0 3.091-.59 4.232-1.57l.27.28v.79L19.01 20.5l1.491-1.49-4.993-5.004zm-6.003 0A4.497 4.497 0 0 1 5 9.504 4.497 4.497 0 0 1 9.504 5a4.497 4.497 0 0 1 4.502 4.503 4.497 4.497 0 0 1-4.502 4.502z"/></svg>
